X:115
T: Der Bauer ins Holz
N: A0472F
O: Europa, Mitteleuropa, Deutschland
N: M. Franck, Fasc. quodl. 1611 No. 2.
R: Romanze, Ballade, Lied
M: 4/4
L: 1/4
K: C
C | CCA,A, | G,G,E,
E, | G,G,F,F, | E,2z
G, | CCDD | E2D
F | ECCB, | C2z

@@@ Tune index: 428
